X:006
L:1/8
M:6/8
K:ADor
e | AAA c2 e | dBG dBG | AAA c2 d | ece ecA |
gag f2 e | dBg dBG | AAA cde | dBG A2 ::
(aga) g2 e | dBg dBG | AAA cde | dBG A2 :|]

